X: 1
T: Skye Barbecue
C: Alasdair Fraser / "Dawn Dance"
O: trans. T. Traub 6-6-2014
M: 4/4
L: 1/8
R: Reel
K: A
B |\
"F#m"c3 c- cdcB | "F#m"Acfc acfc | "E"gfef gabg | "A"agfa "C#m"gfeB |\
"F#m"c3 c- cdcB | 
"F#m"Acfc acfc | "F#m"agfa "E"gfeg | "F#m"f4 f3 :: g |\
"A"a2 ec Acec | "D"dcBA "E"GBEG | "A"Acec acec |
"D"dcBc "E"defg |\
"A"a2 ec Acec | "D"dcBA "E"GBEG | "A"Acec acec | "E"dcBd "A"cAA :| 
